X: 195
T: Miss Margaret Seton's Strathspey
R: strathspey
B: William Shepherd "2nd Collection" 1800 p.19 #5
F: http://imslp.org/wiki/File:PMLP73094-Shepherd_Collections_HMT.pdf
C: William Shepherd (17??-1812)
Z: 2012 John Chambers <jc:trillian.mit.edu>
M: C
L: 1/8
K: F
A/B/ |!segno!\
c>FA>F C>FA,>F | F>cA>F G/G/G Td2 |\
F>cA>c f>cA>F | B>dc>A G/G/G d2 |
c>FA>F C>FA,>F | F>cA>F G/G/G Td2 |\
F>cA>c f>cA>F | B>dc>A G/G/G dc ||
f>ad>f c>fA>F | f>gf>c d/d/d Tg2 |\
f>ad>f c>fA>F | B>dc>A G/G/G Td2 |
f>ad>f c>fA>F | Tf>ef>c d/d/d Tg2 |\
a>fg>e f>cA>F | B>dc>A G/G/G Td2 !segno!|]
